X: 1
T: Da New Rigged Ship
R: Reel
M: 4/4
L: 1/8
K: Ador
eg|:a2ab ageg|a2ab agef|g2g2 fgag|1 f2d2d2eg:|2 f2d2d2ed||
|:^cAcA B2 ed|^cAcA E2 ed|^cAcA B2 ed|1 ^c2A2A2ed:|2 ^c2A2A3B||
|:cdec BcdB|ABAF GF E2|cdec BcdB|1 c2A2A3B:|2 c2A2A4||
